src/assets/selectIcons/musica_4.svg

<?xml version="1.0" encoding="UTF-8" standalone="no"?>
<!DOCTYPE svg PUBLIC "-//W3C//DTD SVG 1.1//EN" "http://www.w3.org/Graphics/SVG/1.1/DTD/svg11.dtd">
<svg width="100%" height="100%" viewBox="0 0 512 512" version="1.1" xmlns="http://www.w3.org/2000/svg" xmlns:xlink="http://www.w3.org/1999/xlink" xml:space="preserve" xmlns:serif="http://www.serif.com/" style="fill-rule:evenodd;clip-rule:evenodd;stroke-linejoin:round;stroke-miterlimit:2;">
    <rect x="0" y="0" width="512" height="512" style="fill-rule:nonzero;"/>
    <path d="M449.4,26.29C444,28.85 434.8,33.29 422.2,40.43C404.6,50.41 384.5,64.07 376.3,74.7C374.5,77.03 371.3,85.09 369.5,91.95C368.3,96.44 368.1,97.97 367.7,100.2L411.7,144.2C413.9,143.8 415.5,143.6 420,142.4C426.9,140.6 435,137.4 437.3,135.6C447.9,127.4 461.6,107.4 471.5,89.81C478.7,77.19 483.1,68 485.7,62.57L449.4,26.29ZM435,54.32L457.7,76.95L444.9,89.69L422.2,67.06L435,54.32ZM357.9,115.8L42.49,431.3C50.35,434.3 58.15,439.6 65.26,446.7C72.35,453.8 77.63,461.6 80.68,469.4L396.1,154L357.9,115.8ZM349.6,146.5C349.633,146.5 349.667,146.5 349.7,146.5C353.87,146.56 357.855,148.247 360.8,151.2C366.989,157.404 366.989,167.596 360.8,173.8C357.798,176.822 353.71,178.523 349.45,178.523C345.19,178.523 341.102,176.822 338.1,173.8C331.911,167.596 331.911,157.404 338.1,151.2C341.143,148.15 345.292,146.454 349.6,146.5ZM304.5,191.8C308.621,191.859 312.564,193.508 315.5,196.4C318.522,199.402 320.223,203.49 320.223,207.75C320.223,212.01 318.522,216.098 315.5,219.1C309.296,225.289 299.104,225.289 292.9,219.1C289.878,216.098 288.177,212.01 288.177,207.75C288.177,203.49 289.878,199.402 292.9,196.4C295.983,193.361 300.172,191.7 304.5,191.8ZM259.2,237C263.37,237.06 267.355,238.747 270.3,241.7C276.489,247.904 276.489,258.096 270.3,264.3C264.096,270.489 253.904,270.489 247.7,264.3C241.511,258.096 241.511,247.904 247.7,241.7C250.743,238.65 254.892,236.954 259.2,237ZM213.9,282.3C213.933,282.3 213.967,282.3 214,282.3C218.135,282.386 222.08,284.071 225,287C231.189,293.204 231.189,303.396 225,309.6C218.796,315.789 208.604,315.789 202.4,309.6C196.211,303.396 196.211,293.204 202.4,287C205.443,283.95 209.592,282.254 213.9,282.3ZM168.7,327.6C172.856,327.633 176.839,329.284 179.8,332.2C182.822,335.202 184.523,339.29 184.523,343.55C184.523,347.81 182.822,351.898 179.8,354.9C176.798,357.922 172.71,359.623 168.45,359.623C164.19,359.623 160.102,357.922 157.1,354.9C154.078,351.898 152.377,347.81 152.377,343.55C152.377,339.29 154.078,335.202 157.1,332.2C160.183,329.161 164.372,327.5 168.7,327.6ZM29.04,446.5C27.6,446.5 26.91,446.9 26.79,447C26.58,447.2 25.59,449.3 27.22,454.5C28.92,459.7 33.09,466.6 39.24,472.7C45.39,478.9 52.25,483.1 57.48,484.8C62.64,486.4 64.77,485.4 64.98,485.2C65.19,485 66.18,482.8 64.55,477.7C62.86,472.5 58.68,465.6 52.53,459.4C46.38,453.3 39.52,449.1 34.29,447.4C32.36,446.8 30.85,446.6 29.71,446.5L29.04,446.5Z" style="fill:rgb(190,170,119);fill-rule:nonzero;"/>
</svg>

<svg xmlns="http://www.w3.org/2000/svg" viewBox="0 0 512 512"><path d="M0 0h512v512H0z"/><path fill="#fff" d="M449.4 26.29c-5.4 2.56-14.6 7-27.2 14.14-17.6 9.98-37.7 23.64-45.9 34.27-1.8 2.33-5 10.39-6.8 17.25-1.2 4.49-1.4 6.02-1.8 8.25l44 44c2.2-.4 3.8-.6 8.3-1.8 6.9-1.8 15-5 17.3-6.8 10.6-8.2 24.3-28.2 34.2-45.79 7.2-12.62 11.6-21.81 14.2-27.24zM435 54.32l22.7 22.63-12.8 12.74-22.7-22.63zm-77.1 61.48L42.49 431.3c7.86 3 15.66 8.3 22.77 15.4 7.09 7.1 12.37 14.9 15.42 22.7L396.1 154zm-8.3 30.7a16 16 0 0 1 .1 0 16 16 0 0 1 11.1 4.7 16 16 0 0 1 0 22.6 16 16 0 0 1-22.7 0 16 16 0 0 1 0-22.6 16 16 0 0 1 11.5-4.7zm-45.1 45.3a16 16 0 0 1 11 4.6 16 16 0 0 1 0 22.7 16 16 0 0 1-22.6 0 16 16 0 0 1 0-22.7 16 16 0 0 1 11.6-4.6zM259.2 237a16 16 0 0 1 11.1 4.7 16 16 0 0 1 0 22.6 16 16 0 0 1-22.6 0 16 16 0 0 1 0-22.6 16 16 0 0 1 11.5-4.7zm-45.3 45.3a16 16 0 0 1 .1 0 16 16 0 0 1 11 4.7 16 16 0 0 1 0 22.6 16 16 0 0 1-22.6 0 16 16 0 0 1 0-22.6 16 16 0 0 1 11.5-4.7zm-45.2 45.3a16 16 0 0 1 11.1 4.6 16 16 0 0 1 0 22.7 16 16 0 0 1-22.7 0 16 16 0 0 1 0-22.7 16 16 0 0 1 11.6-4.6zM29.04 446.5c-1.44 0-2.13.4-2.25.5-.21.2-1.2 2.3.43 7.5 1.7 5.2 5.87 12.1 12.02 18.2 6.15 6.2 13.01 10.4 18.24 12.1 5.16 1.6 7.29.6 7.5.4.21-.2 1.2-2.4-.43-7.5-1.69-5.2-5.87-12.1-12.02-18.3-6.15-6.1-13.01-10.3-18.24-12-1.93-.6-3.44-.8-4.58-.9z"/></svg>
